src/main/content/img/reddit_link.svg

<?xml version="1.0" encoding="UTF-8"?>
<svg width="30px" height="25px" viewBox="0 0 30 25" version="1.1" xmlns="http://www.w3.org/2000/svg" xmlns:xlink="http://www.w3.org/1999/xlink">
    <!-- Generator: Sketch 44.1 (41455) - http://www.bohemiancoding.com/sketch -->
    <title>redditShare</title>
    <desc>Created with Sketch.</desc>
    <defs></defs>
    <g id="Page-1" stroke="none" stroke-width="1" fill="none" fill-rule="evenodd">
        <g id="Blog-Main-v3-Copy" transform="translate(-450.000000, -1771.000000)" fill="#F4914D">
            <g id="redditShare" transform="translate(450.000000, 1771.000000)">
                <path d="M2.69938914,14.9428571 C2.62608597,15.2732143 2.58943439,15.6107143 2.58943439,15.9535714 C2.58943439,20.0607143 7.97721719,23.4053571 14.6001584,23.4053571 C21.221267,23.4053571 26.6090498,20.0625 26.6090498,15.9535714 C26.6090498,15.6267857 26.5723982,15.3035714 26.5082579,14.9892857 L26.4899321,14.95 C26.4661086,14.8857143 26.4532805,14.8196429 26.4532805,14.7535714 C26.0867647,13.3535714 25.088009,12.0803571 23.6439367,11.0535714 C23.5889593,11.0357143 23.5376471,11.0071429 23.49,10.9696429 C23.4588462,10.9464286 23.4350226,10.9196429 23.4093665,10.8928571 C21.2139367,9.42142857 18.0765611,8.5 14.6001584,8.5 C11.1549095,8.5 8.0468552,9.40357143 5.8550905,10.8482143 C5.83676471,10.8696429 5.81843891,10.8892857 5.79461538,10.9071429 C5.74696833,10.9464286 5.69199095,10.9785714 5.635181,10.9964286 C4.15995475,12.025 3.13554299,13.3053571 2.75436652,14.7214286 C2.75436652,14.7892857 2.73604072,14.8589286 2.70855204,14.925 L2.69938914,14.9428571 L2.69938914,14.9428571 Z M14.6606335,21.4339286 C12.4652036,21.4339286 10.9185068,20.9696429 9.93257919,20.0053571 C9.72,19.7982143 9.72,19.4607143 9.93257919,19.2517857 C10.146991,19.0553571 10.495181,19.0553571 10.7095928,19.2517857 C11.479276,20.0017857 12.7712443,20.3767857 14.6588009,20.3767857 C16.5463575,20.3767857 17.8291629,20.0196429 18.5988462,19.2696429 C18.8004299,19.0732143 19.1486199,19.0732143 19.3685294,19.2696429 C19.5701131,19.4839286 19.5701131,19.8232143 19.3685294,20.0375 C18.3789367,21.0017857 16.8395701,21.4660714 14.6404751,21.4660714 L14.6606335,21.4339286 Z M10.2477828,12.4017857 C9.1299095,12.4017857 8.19529412,13.3125 8.19529412,14.4017857 C8.19529412,15.4875 9.1299095,16.3696429 10.2477828,16.3696429 C11.3656561,16.3696429 12.2691176,15.4875 12.2691176,14.4017857 C12.2691176,13.3125 11.3638235,12.4017857 10.2477828,12.4017857 Z M19.0991403,12.4017857 C17.981267,12.4017857 17.0466516,13.3125 17.0466516,14.4017857 C17.0466516,15.4875 17.981267,16.3696429 19.0991403,16.3696429 C20.2170136,16.3696429 21.1204751,15.4875 21.1204751,14.4017857 C21.1204751,13.3125 20.215181,12.4017857 19.0991403,12.4017857 Z M24.6665158,10.5 C25.9364932,11.4928571 26.869276,12.6714286 27.3457466,13.9642857 C27.8955204,13.5625 28.2253846,12.9321429 28.2253846,12.2357143 C28.2253846,11.0392857 27.226629,10.0678571 26.0006335,10.0678571 C25.5113348,10.0678571 25.0476923,10.2232143 24.6665158,10.5017857 L24.6665158,10.5 Z M3.32063348,10.0714286 C2.09280543,10.0714286 1.09588235,11.0446429 1.09588235,12.2392857 C1.09588235,12.8875 1.38909502,13.4892857 1.8838914,13.8946429 C2.37502262,12.6089286 3.31696833,11.4482143 4.59244344,10.4660714 C4.22226244,10.2160714 3.78061086,10.0732143 3.32063348,10.0732143 L3.32063348,10.0714286 Z M14.6001584,24.4767857 C7.37246606,24.4767857 1.49355204,20.6553571 1.49355204,15.9589286 C1.49355204,15.6321429 1.5228733,15.3107143 1.57785068,14.9946429 C0.60658371,14.4053571 0.00183257919,13.3696429 0.00183257919,12.2357143 C0.00183257919,10.45 1.50454751,9 3.3371267,9 C4.16178733,9 4.93147059,9.29285714 5.53622172,9.8125 C7.80861991,8.39107143 10.8690271,7.49642857 14.2409729,7.4375 L16.4583937,0.848214286 L16.95319,0.960714286 C16.95319,0.960714286 16.9715158,0.960714286 16.9715158,0.964285714 L22.1393891,2.14821429 C22.5608824,1.19642857 23.5321493,0.526785714 24.6683484,0.526785714 C26.1710633,0.526785714 27.3988914,1.72321429 27.3988914,3.19107143 C27.3988914,4.66071429 26.1710633,5.85535714 24.6683484,5.85535714 C23.1656335,5.85535714 21.9378054,4.65892857 21.9378054,3.19464286 L17.2262443,2.10714286 L15.4303167,7.44642857 C18.6739819,7.57142857 21.6061086,8.46428571 23.8052036,9.85714286 C24.4099548,9.30357143 25.2052941,9 26.0501131,9 C27.8826923,9 29.3744118,10.4464286 29.3744118,12.2321429 C29.3744118,13.4107143 28.7146833,14.4821429 27.6884389,15.0535714 C27.7250905,15.3571429 27.7617421,15.6428571 27.7617421,15.9464286 C27.7434163,20.6428571 21.8791629,24.4642857 14.6404751,24.4642857 L14.6001584,24.4767857 Z M24.6115385,1.59464286 C23.7062443,1.59464286 22.9713801,2.30892857 22.9713801,3.19107143 C22.9713801,4.07142857 23.7044118,4.7875 24.6097059,4.7875 C25.5076697,4.7875 26.2407014,4.07321429 26.2407014,3.19821429 C26.2407014,2.32321429 25.5076697,1.60892857 24.5913801,1.60892857 L24.6115385,1.59464286 Z" id="Shape"></path>
            </g>
        </g>
    </g>
</svg>

<svg width="30" height="25" viewBox="0 0 30 25" xmlns="http://www.w3.org/2000/svg"><title>redditShare</title><path d="M2.7 14.943c-.074.33-.11.668-.11 1.01 0 4.108 5.387 7.452 12.01 7.452 6.621 0 12.009-3.343 12.009-7.451 0-.327-.037-.65-.1-.965l-.02-.039a.565.565 0 0 1-.036-.196c-.366-1.4-1.365-2.674-2.81-3.7a.498.498 0 0 1-.153-.084c-.031-.024-.055-.05-.08-.077C21.213 9.42 18.076 8.5 14.6 8.5c-3.445 0-6.553.904-8.745 2.348a.485.485 0 0 1-.22.148c-1.475 1.029-2.5 2.31-2.88 3.725a.538.538 0 0 1-.046.204l-.01.018zm11.96 6.49c-2.195 0-3.741-.463-4.727-1.428a.525.525 0 0 1 0-.753.586.586 0 0 1 .777 0c.77.75 2.061 1.125 3.949 1.125 1.887 0 3.17-.357 3.94-1.107.201-.197.55-.197.77 0a.563.563 0 0 1 0 .768c-.99.964-2.53 1.428-4.729 1.428l.02-.032zm-4.412-9.031c-1.118 0-2.053.91-2.053 2 0 1.086.935 1.968 2.053 1.968 1.118 0 2.021-.883 2.021-1.968 0-1.09-.905-2-2.021-2zm8.851 0c-1.118 0-2.052.91-2.052 2 0 1.086.934 1.968 2.052 1.968 1.118 0 2.021-.883 2.021-1.968 0-1.09-.905-2-2.02-2zm5.568-1.902c1.27.993 2.202 2.171 2.679 3.464.55-.402.88-1.032.88-1.728 0-1.197-1-2.168-2.225-2.168-.49 0-.953.155-1.334.434V10.5zM3.32 10.071c-1.228 0-2.225.974-2.225 2.168 0 .648.293 1.25.788 1.656.491-1.286 1.433-2.447 2.708-3.429a2.275 2.275 0 0 0-1.271-.393v-.002zM14.6 24.477c-7.229 0-13.107-3.822-13.107-8.518 0-.327.029-.648.084-.964a3.23 3.23 0 0 1-1.576-2.76C.002 10.45 1.505 9 3.337 9c.825 0 1.594.293 2.2.813 2.272-1.422 5.332-2.317 8.704-2.376L16.458.848l.495.113s.019 0 .019.003l5.167 1.184A2.756 2.756 0 0 1 24.67.527c1.502 0 2.73 1.196 2.73 2.664 0 1.47-1.228 2.664-2.73 2.664-1.503 0-2.731-1.196-2.731-2.66l-4.712-1.088-1.796 5.34c3.244.124 6.176 1.017 8.375 2.41A3.306 3.306 0 0 1 26.05 9c1.833 0 3.324 1.446 3.324 3.232 0 1.179-.66 2.25-1.686 2.822.037.303.074.589.074.892-.019 4.697-5.883 8.518-13.122 8.518l-.04.013zM24.61 1.595c-.905 0-1.64.714-1.64 1.596 0 .88.733 1.596 1.639 1.596.898 0 1.63-.714 1.63-1.589s-.732-1.59-1.649-1.59l.02-.013z" fill="#F4914D" fill-rule="evenodd"/></svg>
